X:1
T:Title
%%score ( 1 2 ) { 3 | 4 }
L:1/8
Q:1/4=110
M:4/4
K:Eb
V:1 treble nm="Grand Piano, Soprano"
V:2 treble 
V:3 bass nm="Choir Pad, Bass"
V:4 bass 
V:1
 E2 E2- E/ z/ E [EG]2 | [GB]2 [Ge]6 | [Bd][Ac] [GB]2- [GB][Ac] [GB]2 | [FA]2 [EG]6 | %4
w: By~Robert~Lowry * * * *||||
 [FA][EG] F2 B2 [Fd]2 | [Ec]2 [DB]6 | [GB]2 [GB]2- [GB][GB][Ac][GB] | [FA][EG] [DF]6 | %8
w: ||||
 [EG]2 [FA]2- [FA][FA][GB][FA] | [EG][DF] [EG]6 | [GB]2 [Ge]4 [GB]2- | %11
w: |||
 [GB]2 [Ec]2- [Ec][Fd] [Ee]2 | [Bd][Ac] [GB]2 [FA]2 [EG]2 | [DF]2 E6- | E2 z2 z4 |] %15
w: ||||
V:2
 x8 | x8 | x8 | x8 | z2 D4 z2 | x8 | x8 | x8 | x8 | x8 | x8 | x8 | x8 | x8 | x8 |] %15
V:3
 G,2 G,2- G,G, B,2 | E2 B,6 | E2 E2- EE E2 | B,2 B,6 | B,2 B,4 B,2 | =A,2 B,6 | %6
 B,2[K:treble] E2- EE E2 | B,2[K:bass] B,6 | B,2 B,2- B,B, B,2 | B,2 B,6 | z4[K:treble] B,2 E2 | %11
 E2 E2- ED C2 | E2 E2[K:bass] B,2 B,2 | A,2 G,6- | G,2 z2 z4 |] %15
V:4
 E,2 E,2- E,E, E,2 | E,2 E,6 | E,2 E,2- E,A,, B,,2 | B,,2 E,6 | E,2 F,4 F,2- | F,2 B,,6 | %6
 E,2 E,2- E,E, E,2 | E,2 B,,6 | B,,2 B,,2- B,,B,, B,,2 | B,,2 E,6 | z4 E,2 E,2 | %11
 E,2 A,2- A,A, A,2 | A,2 B,2 z2 B,,2- | B,,2 E,6- | E,2 z2 z4 |] %15

